picto/shopping-framed.svg

<svg class="color-immutable" width="30" height="30" viewBox="0 0 30 30" fill="none" xmlns="http://www.w3.org/2000/svg"><path d="M29.9999 0H0V29.9999H29.9999V0Z" fill="#2D327D"/><path d="M25.4999 2.99999C26.3249 2.99999 26.9999 3.67499 26.9999 4.49999V25.4999C26.9999 26.3249 26.3249 26.9999 25.4999 26.9999H4.49999C3.67499 26.9999 2.99999 26.3249 2.99999 25.4999V4.49999C2.99999 3.67499 3.67499 2.99999 4.49999 2.99999H25.4999ZM25.4999 2.62499H4.49999C3.46612 2.62499 2.62499 3.46612 2.62499 4.49999V25.4999C2.62499 26.5338 3.46612 27.3749 4.49999 27.3749H25.4999C26.5338 27.3749 27.3749 26.5338 27.3749 25.4999V4.49999C27.3749 3.46612 26.5338 2.62499 25.4999 2.62499Z" fill="white"/><path d="M16.7962 23.0942L16.3825 14.0314C16.3619 13.5671 15.9797 13.201 15.5146 13.201H13.5569V12.6609C13.5569 11.468 12.5899 10.5009 11.3969 10.5009C10.2041 10.5009 9.23693 11.468 9.23693 12.6609V13.201H7.27906C6.81421 13.201 6.43149 13.5671 6.41124 14.0314L5.99791 23.0942C5.98741 23.331 6.07419 23.5617 6.23814 23.7328C6.40171 23.9041 6.62859 24.0009 6.86558 24.0009H15.9284C16.1653 24.0009 16.3919 23.9041 16.5556 23.7328C16.7195 23.5617 16.8066 23.331 16.7962 23.0942ZM10.4521 12.661C10.4521 12.139 10.8751 11.716 11.397 11.716C11.9189 11.716 12.3421 12.139 12.3421 12.661V13.2011H10.4521V12.661ZM7.79086 22.246L8.12813 14.956H9.23701V16.1034C9.23701 16.4389 9.50895 16.7108 9.84443 16.7108C10.1801 16.7108 10.452 16.4389 10.452 16.1034V14.956H12.342V16.1034C12.342 16.4389 12.6139 16.7108 12.9494 16.7108C13.2849 16.7108 13.5569 16.4389 13.5569 16.1034V14.956H14.6656L15.0028 22.246H7.79086Z" fill="white"/><path d="M7.96066 6.66596H7.49311C7.48389 6.55623 7.44309 6.47238 7.37086 6.41448C7.29856 6.35651 7.19731 6.32756 7.06711 6.32756C6.95124 6.32756 6.86124 6.35036 6.79719 6.39603C6.73314 6.44156 6.70104 6.50546 6.70104 6.58751C6.70104 6.66131 6.73179 6.71463 6.79329 6.74748C6.85276 6.78033 7.00351 6.82646 7.24546 6.88593C7.50076 6.94953 7.67769 7.01358 7.77609 7.07816C7.95759 7.19711 8.04834 7.36271 8.04834 7.57495C8.04834 7.80775 7.95706 7.99128 7.77459 8.1256C7.61364 8.2435 7.39569 8.30245 7.12089 8.30245C6.81534 8.30245 6.57796 8.2327 6.40876 8.09328C6.23956 7.95385 6.15189 7.7554 6.14574 7.498H6.63481C6.64201 7.6231 6.67426 7.71588 6.73171 7.7764C6.82194 7.87278 6.95784 7.921 7.13934 7.921C7.26241 7.921 7.35976 7.89693 7.43154 7.8487C7.51254 7.79335 7.55304 7.71798 7.55304 7.62258C7.55304 7.52718 7.49611 7.4575 7.38234 7.41341C7.31979 7.38881 7.17211 7.34418 6.93939 7.27961C6.79381 7.23963 6.67996 7.20168 6.59791 7.16576C6.51586 7.12983 6.45024 7.08986 6.40104 7.04576C6.28621 6.94323 6.22876 6.80171 6.22876 6.62126C6.22876 6.40488 6.31846 6.23366 6.49794 6.10751C6.65071 5.99981 6.84916 5.94603 7.09321 5.94603C7.30749 5.94603 7.48696 5.98856 7.63156 6.07368C7.83961 6.19578 7.94934 6.39318 7.96066 6.66596Z" fill="white"/><path d="M8.7882 5.99999V6.79979C8.8374 6.71159 8.90737 6.64259 8.99812 6.59294C9.08887 6.54314 9.18907 6.51831 9.2988 6.51831C9.52335 6.51831 9.68437 6.59781 9.78172 6.75674C9.83812 6.84899 9.86632 6.99051 9.86632 7.18124V8.24863H9.4218V7.26119C9.4218 7.13811 9.40485 7.05306 9.37102 7.00589C9.32077 6.93614 9.24232 6.90126 9.13567 6.90126C8.9952 6.90126 8.8947 6.96276 8.83417 7.08584C8.81572 7.12379 8.80342 7.16534 8.79727 7.21041C8.79112 7.25549 8.78805 7.32779 8.78805 7.42731V8.24863H8.34202V5.99999H8.7882Z" fill="white"/><path d="M11.0153 6.52294C11.2594 6.52294 11.4588 6.60394 11.6137 6.76594C11.7665 6.92591 11.8429 7.13921 11.8429 7.40576C11.8429 7.68161 11.7614 7.90151 11.5983 8.06561C11.4455 8.21838 11.2466 8.29481 11.0015 8.29481C10.7401 8.29481 10.5319 8.20968 10.3771 8.03951C10.2294 7.87751 10.1556 7.66728 10.1556 7.40891C10.1556 7.15458 10.2274 6.94796 10.3709 6.78904C10.5298 6.61159 10.7447 6.52294 11.0153 6.52294ZM10.9922 6.87049C10.8743 6.87049 10.7805 6.91819 10.7108 7.01351C10.64 7.10988 10.6046 7.24166 10.6046 7.40883C10.6046 7.58216 10.6395 7.71491 10.7093 7.80723C10.781 7.90053 10.879 7.94718 11.003 7.94718C11.1189 7.94718 11.2107 7.90466 11.2784 7.81953C11.3552 7.72518 11.3937 7.58831 11.3937 7.40883C11.3937 7.24068 11.3599 7.10996 11.2922 7.01666C11.2214 6.91924 11.1215 6.87049 10.9922 6.87049Z" fill="white"/><path d="M12.5548 6.57218V6.78443C12.6769 6.60908 12.8466 6.52141 13.0639 6.52141C13.2803 6.52141 13.4551 6.60443 13.5884 6.77056C13.7217 6.93466 13.7884 7.15096 13.7884 7.41961C13.7884 7.67086 13.7294 7.87538 13.6115 8.03333C13.4803 8.21071 13.3029 8.29943 13.0793 8.29943C12.864 8.29943 12.6964 8.21281 12.5764 8.03948V8.85623H12.1303V6.57218H12.5548ZM12.944 6.90443C12.8271 6.90443 12.7338 6.94958 12.6641 7.03981C12.5944 7.12898 12.5595 7.25461 12.5595 7.41661C12.5595 7.58378 12.5959 7.71241 12.6687 7.80263C12.7384 7.88978 12.8338 7.93336 12.9547 7.93336C13.0737 7.93336 13.1665 7.89031 13.2331 7.80413C13.3039 7.71188 13.3393 7.58626 13.3393 7.42733C13.3393 7.26016 13.3033 7.12996 13.2316 7.03666C13.165 6.94846 13.0691 6.90443 12.944 6.90443Z" fill="white"/><path d="M14.479 6.57218V6.78443C14.6011 6.60908 14.7708 6.52141 14.9881 6.52141C15.2045 6.52141 15.3793 6.60443 15.5126 6.77056C15.6459 6.93466 15.7126 7.15096 15.7126 7.41961C15.7126 7.67086 15.6536 7.87538 15.5357 8.03333C15.4045 8.21071 15.2271 8.29943 15.0035 8.29943C14.7882 8.29943 14.6206 8.21281 14.5006 8.03948V8.85623H14.0545V6.57218H14.479ZM14.8681 6.90443C14.7512 6.90443 14.6579 6.94958 14.5882 7.03981C14.5185 7.12898 14.4836 7.25461 14.4836 7.41661C14.4836 7.58378 14.52 7.71241 14.5928 7.80263C14.6626 7.88978 14.7579 7.93336 14.8789 7.93336C14.9978 7.93336 15.0906 7.89031 15.1573 7.80413C15.228 7.71188 15.2634 7.58626 15.2634 7.42733C15.2634 7.26016 15.2275 7.12996 15.1557 7.03666C15.0891 6.94846 14.9932 6.90443 14.8681 6.90443Z" fill="white"/><path d="M16.4387 5.99999V6.40146H15.9926V5.99999H16.4387ZM16.4387 6.57216V8.24871H15.9926V6.57216H16.4387Z" fill="white"/><path d="M17.2184 6.57368V6.80903C17.2707 6.73726 17.3194 6.68446 17.3645 6.65063C17.4753 6.56453 17.6086 6.52141 17.7644 6.52141C17.9018 6.52141 18.0182 6.55628 18.1135 6.62603C18.1894 6.68138 18.2425 6.75136 18.2728 6.83603C18.303 6.92056 18.3181 7.03981 18.3181 7.19363V8.24873H17.8736V7.28738C17.8736 7.17968 17.8644 7.10078 17.8459 7.05053C17.8285 7.00643 17.7988 6.97156 17.7568 6.94591C17.7085 6.91823 17.6537 6.90436 17.5922 6.90436C17.5246 6.90436 17.463 6.92078 17.4076 6.95356C17.3523 6.98633 17.3113 7.03096 17.2846 7.08736C17.2549 7.15096 17.2399 7.24988 17.2399 7.38421V8.24858H16.7939V6.57368H17.2184Z" fill="white"/><path d="M20.2346 6.5691V8.04877C20.2346 8.18002 20.2264 8.28487 20.21 8.36324C20.1936 8.44177 20.1654 8.51324 20.1254 8.57782C19.9962 8.78287 19.7645 8.88547 19.4301 8.88547C18.9646 8.88547 18.7099 8.70959 18.6658 8.35792H19.1149C19.1456 8.49839 19.2538 8.56867 19.4394 8.56867C19.5809 8.56867 19.6798 8.52869 19.7362 8.44867C19.7803 8.38507 19.8024 8.28254 19.8024 8.14102L19.8039 7.93335C19.6891 8.10974 19.523 8.19787 19.3056 8.19787C19.0953 8.19787 18.9277 8.12407 18.8026 7.97639C18.6755 7.8267 18.6119 7.62472 18.6119 7.3704C18.6119 7.11607 18.6755 6.91207 18.8026 6.75825C18.9349 6.59932 19.1087 6.51982 19.324 6.51982C19.4358 6.51982 19.5291 6.54082 19.6039 6.5829C19.6788 6.62497 19.7475 6.69517 19.81 6.79365V6.5691H20.2346ZM19.424 6.8859C19.2989 6.8859 19.204 6.93817 19.1394 7.0428C19.0872 7.12687 19.061 7.23352 19.061 7.36275C19.061 7.52685 19.0989 7.65142 19.1748 7.73647C19.2405 7.81237 19.3261 7.85032 19.4317 7.85032C19.565 7.85032 19.665 7.79445 19.7316 7.6827C19.7829 7.5966 19.8085 7.48785 19.8085 7.3566C19.8085 7.19872 19.7691 7.0767 19.6901 6.99052C19.6255 6.92077 19.5368 6.8859 19.424 6.8859Z" fill="white"/></svg>

<svg class="color-immutable" width="30" height="30" viewBox="0 0 30 30" fill="none" xmlns="http://www.w3.org/2000/svg"><path d="M30 0H0v30h30V0Z" fill="#2D327D"/><path d="M25.5 3c.825 0 1.5.675 1.5 1.5v21c0 .825-.675 1.5-1.5 1.5h-21c-.825 0-1.5-.675-1.5-1.5v-21C3 3.675 3.675 3 4.5 3h21Zm0-.375h-21A1.877 1.877 0 0 0 2.625 4.5v21c0 1.034.841 1.875 1.875 1.875h21a1.877 1.877 0 0 0 1.875-1.875v-21A1.877 1.877 0 0 0 25.5 2.625Z" fill="#fff"/><path d="m16.796 23.094-.413-9.063a.869.869 0 0 0-.868-.83h-1.958v-.54a2.16 2.16 0 1 0-4.32 0v.54H7.279a.869.869 0 0 0-.868.83l-.413 9.063a.867.867 0 0 0 .868.907h9.062a.867.867 0 0 0 .868-.907Zm-6.344-10.433a.945.945 0 1 1 1.89 0v.54h-1.89v-.54Zm-2.661 9.585.337-7.29h1.109v1.147a.607.607 0 1 0 1.215 0v-1.147h1.89v1.147a.607.607 0 1 0 1.215 0v-1.147h1.109l.337 7.29H7.79ZM7.96 6.666h-.467a.343.343 0 0 0-.122-.252.474.474 0 0 0-.304-.086.46.46 0 0 0-.27.068.222.222 0 0 0-.096.192c0 .073.03.127.092.16.06.032.21.078.452.138.256.064.433.128.531.192a.563.563 0 0 1 .272.497.647.647 0 0 1-.273.55c-.161.118-.38.177-.654.177-.306 0-.543-.07-.712-.209-.17-.14-.257-.338-.263-.595h.489c.007.125.04.218.097.278.09.097.226.145.407.145.123 0 .22-.024.293-.072a.26.26 0 0 0 .121-.226c0-.096-.057-.166-.17-.21a6.002 6.002 0 0 0-.444-.133 2.619 2.619 0 0 1-.341-.114.736.736 0 0 1-.197-.12.54.54 0 0 1-.172-.425c0-.216.09-.387.269-.513.153-.108.351-.162.595-.162.214 0 .394.043.539.128.208.122.317.32.329.592ZM8.788 6v.8a.522.522 0 0 1 .21-.207c.09-.05.191-.075.3-.075.225 0 .386.08.484.239.056.092.084.234.084.424V8.25h-.444V7.26c0-.123-.017-.208-.051-.255-.05-.07-.129-.105-.235-.105a.311.311 0 0 0-.302.185.41.41 0 0 0-.037.124c-.006.045-.009.118-.009.217v.822h-.446V6h.446ZM11.015 6.523c.244 0 .444.08.599.243.152.16.229.373.229.64 0 .276-.082.496-.245.66a.807.807 0 0 1-.597.229c-.26 0-.47-.085-.624-.255-.148-.162-.221-.373-.221-.631 0-.254.071-.461.215-.62.159-.177.374-.266.644-.266Zm-.023.347a.331.331 0 0 0-.281.144.655.655 0 0 0-.106.395c0 .173.034.306.104.398a.35.35 0 0 0 .294.14.333.333 0 0 0 .275-.127c.077-.095.116-.232.116-.411 0-.168-.034-.299-.102-.392a.349.349 0 0 0-.3-.147ZM12.555 6.572v.212a.586.586 0 0 1 .509-.263.64.64 0 0 1 .524.25c.134.164.2.38.2.649 0 .25-.059.455-.177.613a.628.628 0 0 1-.532.266.577.577 0 0 1-.503-.26v.817h-.446V6.572h.425Zm.389.332a.336.336 0 0 0-.28.136c-.07.089-.104.215-.104.377 0 .167.036.295.109.386.07.087.165.13.286.13a.332.332 0 0 0 .278-.129.604.604 0 0 0 .106-.377c0-.167-.036-.297-.107-.39a.339.339 0 0 0-.288-.133ZM14.479 6.572v.212a.586.586 0 0 1 .51-.263.64.64 0 0 1 .524.25c.133.164.2.38.2.649 0 .25-.06.455-.177.613a.628.628 0 0 1-.532.266.577.577 0 0 1-.503-.26v.817h-.446V6.572h.424Zm.39.332a.336.336 0 0 0-.28.136c-.07.089-.105.215-.105.377 0 .167.036.295.109.386.07.087.165.13.286.13a.332.332 0 0 0 .278-.129.605.605 0 0 0 .106-.377c0-.167-.036-.297-.107-.39a.339.339 0 0 0-.288-.133ZM16.439 6v.401h-.446V6h.446Zm0 .572V8.25h-.446V6.572h.446ZM17.218 6.574v.235a.632.632 0 0 1 .546-.288c.138 0 .254.035.35.105a.439.439 0 0 1 .159.21c.03.085.045.204.045.358v1.055h-.444v-.962a.74.74 0 0 0-.028-.236.21.21 0 0 0-.09-.105.356.356 0 0 0-.35.008.304.304 0 0 0-.121.133.74.74 0 0 0-.045.297v.865h-.446V6.574h.424ZM20.235 6.57v1.479a1.6 1.6 0 0 1-.025.314.66.66 0 0 1-.085.215c-.129.205-.36.307-.695.307-.465 0-.72-.175-.764-.527h.449c.03.14.139.21.324.21.142 0 .24-.04.297-.12.044-.063.066-.165.066-.307l.002-.208a.558.558 0 0 1-.498.265.625.625 0 0 1-.503-.222c-.128-.15-.191-.351-.191-.606 0-.254.064-.458.19-.612a.645.645 0 0 1 .522-.238c.112 0 .205.02.28.063a.605.605 0 0 1 .206.21V6.57h.425Zm-.811.316a.314.314 0 0 0-.285.157.597.597 0 0 0-.078.32c0 .164.038.288.114.373a.324.324 0 0 0 .257.114.327.327 0 0 0 .3-.167.629.629 0 0 0 .076-.326c0-.158-.039-.28-.118-.366a.345.345 0 0 0-.266-.105Z" fill="#fff"/></svg>
